public/assets/svg/search.svg

<svg width="36" height="36" viewBox="0 0 36 36" fill="none" xmlns="http://www.w3.org/2000/svg">
<g filter="url(#filter0_d_1006_117)">
<path d="M21.8044 20.2722L19.0545 17.7666L18.9901 17.6752C18.8702 17.564 18.7064 17.5014 18.5353 17.5014C18.3643 17.5014 18.2004 17.564 18.0806 17.6752C15.7436 19.6733 12.1425 19.782 9.6656 17.929C7.18869 16.0761 6.60453 12.8366 8.30055 10.3589C9.99656 7.88131 13.4465 6.93435 16.3623 8.1461C19.2781 9.35785 20.755 12.3523 19.8136 15.1435C19.7458 15.3452 19.8012 15.5645 19.959 15.7188C20.1167 15.8731 20.3529 15.939 20.5784 15.8917C20.804 15.8444 20.9847 15.691 21.0525 15.4893C22.1779 12.177 20.4782 8.61239 17.0529 7.10152C13.6276 5.59064 9.50467 6.58691 7.35124 9.44582C5.19782 12.3047 5.66014 16.1683 8.43914 18.5372C11.2181 20.9061 15.4798 21.0694 18.4673 18.9215L20.9021 21.14C21.1536 21.3681 21.5601 21.3681 21.8116 21.14C22.0628 20.9086 22.0628 20.5362 21.8116 20.3048L21.8044 20.2722Z" fill="#40C4F0"/>
</g>
<defs>
<filter id="filter0_d_1006_117" x="0" y="0.399902" width="36" height="34.9111" filterUnits="userSpaceOnUse" color-interpolation-filters="sRGB">
<feFlood flood-opacity="0" result="BackgroundImageFix"/>
<feColorMatrix in="SourceAlpha" type="matrix" values="0 0 0 0 0 0 0 0 0 0 0 0 0 0 0 0 0 0 127 0" result="hardAlpha"/>
<feOffset dx="4" dy="4"/>
<feGaussianBlur stdDeviation="5"/>
<feComposite in2="hardAlpha" operator="out"/>
<feColorMatrix type="matrix" values="0 0 0 0 0.2 0 0 0 0 0.900392 0 0 0 0 0.945098 0 0 0 0.32 0"/>
<feBlend mode="normal" in2="BackgroundImageFix" result="effect1_dropShadow_1006_117"/>
<feBlend mode="normal" in="SourceGraphic" in2="effect1_dropShadow_1006_117" result="shape"/>
</filter>
</defs>
</svg>

<svg width="36" height="36" fill="none" xmlns="http://www.w3.org/2000/svg"><g filter="url(#a)">
    <path d="m21.804 20.272-2.75-2.505-.064-.092a.67.67 0 0 0-.455-.174.67.67 0 0 0-.454.174c-2.337 1.998-5.938 2.107-8.415.254-2.477-1.853-3.061-5.092-1.365-7.57 1.696-2.478 5.146-3.425 8.061-2.213 2.916 1.212 4.393 4.206 3.452 6.997a.553.553 0 0 0 .145.576c.158.154.394.22.62.173a.627.627 0 0 0 .473-.403c1.126-3.312-.574-6.877-4-8.387-3.424-1.511-7.547-.515-9.7 2.344-2.154 2.859-1.692 6.722 1.087 9.091 2.78 2.37 7.04 2.532 10.028.385l2.435 2.218a.69.69 0 0 0 .91 0 .557.557 0 0 0 0-.835l-.008-.033Z" fill="#40C4F0"/></g><defs><filter id="a" x="0" y=".4" width="36" height="34.911" filterUnits="userSpaceOnUse" color-interpolation-filters="sRGB"><feFlood flood-opacity="0" result="BackgroundImageFix"/><feColorMatrix in="SourceAlpha" values="0 0 0 0 0 0 0 0 0 0 0 0 0 0 0 0 0 0 127 0" result="hardAlpha"/><feOffset dx="4" dy="4"/><feGaussianBlur stdDeviation="5"/><feComposite in2="hardAlpha" operator="out"/><feColorMatrix values="0 0 0 0 0.2 0 0 0 0 0.900392 0 0 0 0 0.945098 0 0 0 0.32 0"/><feBlend in2="BackgroundImageFix" result="effect1_dropShadow_1006_117"/><feBlend in="SourceGraphic" in2="effect1_dropShadow_1006_117" result="shape"/></filter></defs>
</svg>
